icon-themes/breeze_svg/cmd/32/basicshapes.can.svg

<svg viewBox="0 0 32 32" xmlns="http://www.w3.org/2000/svg"><path d="m16 4a12 6 0 0 0 -12 6 12 6 0 0 0 12 6 12 6 0 0 0 12-6 12 6 0 0 0 -12-6zm-12 7.5v10.5c0 3.31371 5.37258 6 12 6s12-2.68629 12-6v-10.5c-.016899.003169-.033882.004658-.050781.007812a12 6 0 0 1 -11.949219 5.492188 12 6 0 0 1 -11.9511719-5.492188c-.0162655-.003035-.0325626-.004762-.0488281-.007812z" fill="#4d4d4d"/></svg>

<svg xmlns="http://www.w3.org/2000/svg" viewBox="0 0 32 32">
 <path 
     style="fill:#4d4d4d" 
     d="M 16 4 A 12 6 0 0 0 4 10 A 12 6 0 0 0 16 16 A 12 6 0 0 0 28 10 A 12 6 0 0 0 16 4 z M 4 11.5 L 4 22 C 4 25.31371 9.37258 28 16 28 C 22.62742 28 28 25.31371 28 22 L 28 11.5 C 27.983101 11.503169 27.966118 11.504658 27.949219 11.507812 A 12 6 0 0 1 16 17 A 12 6 0 0 1 4.0488281 11.507812 C 4.0325626 11.504777 4.0162655 11.50305 4 11.5 z "
     />
</svg>
